icons/icn_mas.svg

<svg width="24" xmlns="http://www.w3.org/2000/svg" height="24" id="screenshot-701359cf-58fd-8059-8006-76f2854dd4c0" viewBox="0 0 24 24" xmlns:xlink="http://www.w3.org/1999/xlink" fill="none" version="1.1"><g id="shape-701359cf-58fd-8059-8006-76f2854dd4c0"><g class="frame-container-wrapper"><g class="frame-container-blur"><g class="frame-container-shadows"><g fill="none"><g class="fills" id="fills-701359cf-58fd-8059-8006-76f2854dd4c0"><rect rx="0" ry="0" x="0" y="0" width="24" height="24.000000000000455" transform="matrix(1, 0, 0, 1, 0, 0)" class="frame-background"/></g><g class="frame-children"><g id="shape-701359cf-58fd-8059-8006-76f285517868" width="24" height="24" version="1.1" rx="0" ry="0" style="fill: rgb(0, 0, 0);"><g id="shape-701359cf-58fd-8059-8006-76f285517869" style="opacity: 1;"><g class="fills" id="fills-701359cf-58fd-8059-8006-76f285517869"><path d="M12.610644340515137,2.9001166820526123C12.446825981140137,2.7384955883026123,12.225878715515137,2.6484076976776123,11.995898246765137,2.6501166820526123C11.517870903015137,2.6503608226776123,11.130419731140137,3.0378119945526123,11.130175590515137,3.5159614086151123L11.131396293640137,11.135346412658691L3.513476610183716,11.132660865783691C3.035449266433716,11.132905006408691,2.647998094558716,11.520356178283691,2.647509813308716,11.998505592346191C2.647998094558716,12.476655006408691,3.035449266433716,12.863984107971191,3.513476610183716,12.864472389221191L11.131396293640137,12.867280006408691L11.134325981140137,20.485198974609375C11.134081840515137,20.715179443359375,11.225390434265137,20.935882568359375,11.387988090515137,21.098602294921875C11.550585746765137,21.261322021484375,11.771533012390137,21.352630615234375,12.001513481140137,21.352508544921875C12.479540824890137,21.352020263671875,12.866991996765137,20.964569091796875,12.867480278015137,20.486541748046875L12.864794731140137,12.868622779846191L20.483936309814453,12.869965553283691C20.961963653564453,12.869477272033691,21.349658966064453,12.482026100158691,21.349903106689453,12.004120826721191C21.351367950439453,11.773285865783691,21.261035919189453,11.551728248596191,21.098682403564453,11.388154029846191C20.934864044189453,11.225556373596191,20.713184356689453,11.135102272033691,20.482715606689453,11.136811256408691L12.864794731140137,11.134003639221191L12.861865043640137,3.5159614086151123C12.863329887390137,3.2852485179901123,12.772997856140137,3.0636909008026123,12.610644340515137,2.9001166820526123Z" style="display: inline; stroke-linecap: round; stroke-linejoin: bevel; fill: rgb(0, 0, 0); fill-opacity: 1;"/></g></g></g></g></g></g></g></g></g></svg>

<svg fill="none" viewBox="0 0 24 24"><g class="frame-container-wrapper"><g class="frame-container-blur"><g class="frame-container-shadows"><g class="fills"><rect width="24" height="24" class="frame-background" rx="0" ry="0"/></g><g class="frame-children"><path fill="#000" d="M12.6106 2.9001a.8661.8661 0 0 0-.6147-.25.8662.8662 0 0 0-.8657.8659l.0012 7.6193-7.618-.0026a.8666.8666 0 0 0-.8659.8658.8668.8668 0 0 0 .866.866l7.6179.0028.003 7.6179a.8666.8666 0 0 0 .8671.8673.8669.8669 0 0 0 .866-.866l-.0027-7.6179 7.6191.0014c.478-.0005.8658-.388.866-.8659a.8662.8662 0 0 0-.2512-.616.8653.8653 0 0 0-.616-.2513l-7.618-.0028-.0028-7.618a.8661.8661 0 0 0-.2513-.6159Z" class="fills"/></g></g></g></g></svg>
